X:1
T:Liebster Immanuel, 11.10.11.10
T:Liebster Immanuel, 11.10.11.10
T:Himmels-Lust, 1679, adapted by J. S. Bach
T:Public Domain Courtesy of the Cyber Hymnal™
C:Himmels-Lust, 1679, adapted by J. S. Bach
Z:Public Domain
Z:Courtesy of the Cyber Hymnal™
%%score ( 1 2 ) ( 3 4 )
L:1/8
Q:1/4=113
M:3/4
K:D
V:1 treble 
V:2 treble 
V:3 bass 
V:4 bass 
V:1
 [Fd]2 [Fd]2 d2 | c3 z B [FA]2 | [DB]2 G2 [DF]2 | E4 [A,D]2 x | [DA]2 [DA]2 [DF]2 | B3 z c [Fd]2 | %6
 [B,D]2 E3 (C[B,F]) | [CF]6 | [DF]2 [DF]2 [DG]2 | [EA]2 [DF]3 [DF] | [FB]2 [E^A]2 [FB]2 | %11
 [Fc]2 F4 | [Fd]2 [Gc]2 [EB]2 | [F^A]3 F [FB]2 x | (cd) ^A3 z B | [FB]6 |] %16
V:2
 x4 (^EF) | ^G2 ^E2 x3 | x2 (DC) x2 | D2 C2 x3 | x6 | D2 G2 x3 | x2 (B,D) x3 | x6 | x6 | x6 | x6 | %11
 x2 F4 | x6 | x3 F x3 | G2 F2 F2 x | x6 |] %16
V:3
 [B,,B,]2 B,2 ([^G,B,][F,A,]) | [^E,^G,]2 [C,C]2 [F,C]2 x | [G,B,]2 [E,B,]2 [F,A,]2 | %3
 A,3 z G, [D,F,]2 | [F,A,]2 [F,A,]2 [D,A,]2 | (G,A,) [E,B,]2 [B,,B,]2 x | %6
 [G,,B,]2 [G,,B,]2 (^A,B,) x | [F,^A,]6 | [B,,B,]2 [B,,B,]2 [E,B,]2 | [C,A,]2 [D,A,]3 [D,A,] | %10
 [D,B,]2 [C,C]2 [B,,D]2 | [F,^A,]2 [F,A,]4 | B,2 [E,^A,]2 [G,B,]2 | C3 z C [D,B,]2 | %14
 ED [F,C]2 [F,,C]2 x | [B,,D]6 |] %16
V:4
 x2 (B,A,) x2 | x7 | x6 | A,2 A,,2 x3 | x6 | G,2 x5 | x4 G,2 x | x6 | x6 | x6 | x6 | x6 | B,2 x4 | %13
 F,2 E,2 x3 | E,2 x5 | x6 |] %16

